Adwaita++/apps/scalable/brackets.svg

<svg height="128" width="128" xmlns="http://www.w3.org/2000/svg" xmlns:xlink="http://www.w3.org/1999/xlink">
  <linearGradient id="e" gradientTransform="matrix(1.0015 0 0 .99993 72.09 56.015)" gradientUnits="userSpaceOnUse" x1="43.844" x2="-60" y1="234" y2="234">
    <stop offset="0" stop-color="#105991" stop-opacity=".996078"/>
    <stop offset=".038" stop-color="#29aae2"/>
    <stop offset=".077" stop-color="#115a91"/>
    <stop offset=".923" stop-color="#115a91"/>
    <stop offset=".962" stop-color="#29aae2"/>
    <stop offset="1" stop-color="#115a91"/>
  </linearGradient>
  <g transform="translate(0 -172)">
    <rect fill="url(#e)" fill-opacity=".996078" height="48" rx="8" width="104" x="12" y="240"/>
    <path d="m20 10c-4.432 0-8 3.568-8 8v42 42c0 4.432 3.568 8 8 8h44 44c4.432 0 8-3.568 8-8v-42-42c0-4.432-3.568-8-8-8z" fill="#209ed9" transform="translate(0 172)"/>
    <g transform="translate(-.601301 -.14122)">
      <rect fill="#fff" height="80" rx="5.455" width="80" x="24.6" y="192.14"/>
      <path d="m31.874023 199.41394v65.45455h29.090917v-14.54546h-14.545455v-36.36363h14.545455v-14.54546zm36.363644 0v14.54546h14.545455v36.36363h-14.545455v14.54546h29.090906v-65.45455z" fill="#424242"/>
    </g>
  </g>
</svg>

<?xml version="1.0" encoding="UTF-8" standalone="no"?>
<svg
   xmlns:dc="http://purl.org/dc/elements/1.1/"
   xmlns:cc="http://creativecommons.org/ns#"
   xmlns:rdf="http://www.w3.org/1999/02/22-rdf-syntax-ns#"
   xmlns:svg="http://www.w3.org/2000/svg"
   xmlns="http://www.w3.org/2000/svg"
   xmlns:xlink="http://www.w3.org/1999/xlink"
   xmlns:sodipodi="http://sodipodi.sourceforge.net/DTD/sodipodi-0.dtd"
   xmlns:inkscape="http://www.inkscape.org/namespaces/inkscape"
   width="128"
   height="128"
   version="1.0"
   id="svg29"
   sodipodi:docname="brackets.svg"
   inkscape:version="0.92.3 (2405546, 2018-03-11)">
  <metadata
     id="metadata33">
    <rdf:RDF>
      <cc:Work
         rdf:about="">
        <dc:format>image/svg+xml</dc:format>
        <dc:type
           rdf:resource="http://purl.org/dc/dcmitype/StillImage" />
      </cc:Work>
    </rdf:RDF>
  </metadata>
  <sodipodi:namedview
     pagecolor="#ffffff"
     bordercolor="#666666"
     borderopacity="1"
     objecttolerance="10"
     gridtolerance="10"
     guidetolerance="10"
     inkscape:pageopacity="0"
     inkscape:pageshadow="2"
     inkscape:window-width="1920"
     inkscape:window-height="1009"
     id="namedview31"
     showgrid="false"
     inkscape:zoom="1.84375"
     inkscape:cx="-43.118644"
     inkscape:cy="64"
     inkscape:window-x="0"
     inkscape:window-y="34"
     inkscape:window-maximized="1"
     inkscape:current-layer="g27" />
  <defs
     id="defs15">
    <linearGradient
       id="a">
      <stop
         id="stop2"
         offset="0"
         stop-color="#68676b" />
      <stop
         id="stop4"
         offset=".8"
         stop-color="#424048" />
      <stop
         id="stop6"
         offset="1"
         stop-color="#241f31" />
    </linearGradient>
    <radialGradient
       id="d"
       cx="279.422"
       cy="446.483"
       r="224"
       fx="279.422"
       fy="446.483"
       gradientTransform="matrix(1.34416 .0006 -.00062 1.38763 -121.22 -718.103)"
       gradientUnits="userSpaceOnUse"
       xlink:href="#a" />
    <linearGradient
       id="e"
       x1="43.844"
       x2="-60"
       y1="234"
       y2="234"
       gradientTransform="matrix(1.0015 0 0 .99993 72.09 56.015)"
       gradientUnits="userSpaceOnUse"
       xlink:href="#b" />
    <linearGradient
       id="b">
      <stop
         id="stop11"
         offset="0"
         stop-color="#d5d3cf"
         style="stop-color:#105991;stop-opacity:0.99607843" />
      <stop
         id="stop13"
         offset=".038"
         stop-color="#e3e2df"
         style="stop-color:#29aae2;stop-opacity:1" />
      <stop
         id="stop15"
         offset=".077"
         stop-color="#c0bfbc"
         style="stop-color:#115a91;stop-opacity:1" />
      <stop
         id="stop17"
         offset=".923"
         stop-color="#c0bfbc"
         style="stop-color:#115a91;stop-opacity:1" />
      <stop
         id="stop19"
         offset=".962"
         stop-color="#e3e2df"
         style="stop-color:#29aae2;stop-opacity:1" />
      <stop
         id="stop21"
         offset="1"
         stop-color="#d5d3cf"
         style="stop-color:#115a91;stop-opacity:1" />
    </linearGradient>
  </defs>
  <g
     transform="translate(0 -172)"
     id="g27">
    <rect
       fill="url(#e)"
       width="104"
       height="48"
       x="12"
       y="240"
       rx="8"
       ry="8"
       id="rect17"
       style="fill:#105991;fill-opacity:0.99607843" />
    <path
       style="fill:#209ed9;fill-opacity:1"
       d="M 20 10 C 15.568 10 12 13.568 12 18 L 12 60 L 12 102 C 12 106.432 15.568 110 20 110 L 64 110 L 108 110 C 112.432 110 116 106.432 116 102 L 116 60 L 116 18 C 116 13.568 112.432 10 108 10 L 20 10 z"
       transform="translate(0,172)"
       id="path19" />
    <g
       transform="translate(-0.60130119,-0.14122009)"
       id="g25">
      <rect
         width="80"
         height="80"
         x="24.6"
         y="192.14"
         rx="5.455"
         ry="5.455"
         style="fill:#ffffff"
         id="rect21" />
      <path
         d="m 31.874023,199.41394 v 65.45455 H 60.96494 V 250.32303 H 46.419485 V 213.9594 H 60.96494 v -14.54546 z m 36.363644,0 v 14.54546 h 14.545455 v 36.36363 H 68.237667 v 14.54546 h 29.090906 v -65.45455 z"
         style="fill:#424242"
         id="path23" />
    </g>
  </g>
</svg>
